icons/vc.svg

<?xml version="1.0" ?>
<svg xmlns="http://www.w3.org/2000/svg" xmlns:ev="http://www.w3.org/2001/xml-events" xmlns:xlink="http://www.w3.org/1999/xlink" baseProfile="full" height="600px" version="1.1" viewBox="2511.9104015341936 -1026.6363714913937 5213.285298132081 12293.20740956382" width="255px">
	<defs/>
	<path d="M 6555.0,10226.0 C 6544.0,10218.0 6519.0,10210.0 6499.0,10210.0 C 6480.0,10210.0 6441.0,10203.0 6413.0,10195.0 C 6373.0,10183.0 6359.0,10173.0 6344.0,10145.0 C 6326.0,10111.0 6323.0,10110.0 6268.0,10110.0 C 6228.0,10110.0 6210.0,10106.0 6210.0,10098.0 C 6210.0,10091.0 6194.0,10074.0 6175.0,10061.0 C 6156.0,10048.0 6140.0,10031.0 6140.0,10023.0 C 6140.0,9987.0 6077.0,9823.0 6053.0,9798.0 C 6036.0,9781.0 6030.0,9766.0 6034.0,9752.0 C 6039.0,9738.0 6029.0,9722.0 5995.0,9692.0 C 5941.0,9642.0 5922.0,9606.0 5913.0,9543.0 C 5904.0,9470.0 5867.0,9406.0 5814.0,9370.0 L 5769.0,9338.0 L 5775.0,9227.0 L 5781.0,9115.0 L 5742.0,9088.0 C 5707.0,9064.0 5701.0,9062.0 5684.0,9075.0 C 5656.0,9096.0 5623.0,9094.0 5617.0,9070.0 C 5614.0,9059.0 5601.0,9046.0 5587.0,9041.0 C 5573.0,9036.0 5559.0,9026.0 5555.0,9020.0 C 5551.0,9014.0 5539.0,9012.0 5528.0,9015.0 C 5518.0,9019.0 5498.0,9019.0 5485.0,9016.0 C 5455.0,9008.0 5434.0,8951.0 5449.0,8922.0 C 5457.0,8906.0 5454.0,8892.0 5435.0,8856.0 C 5402.0,8794.0 5402.0,8770.0 5435.0,8770.0 C 5470.0,8770.0 5466.0,8749.0 5425.0,8721.0 C 5405.0,8708.0 5382.0,8684.0 5373.0,8668.0 C 5362.0,8651.0 5347.0,8640.0 5333.0,8640.0 C 5306.0,8640.0 5294.0,8607.0 5308.0,8570.0 C 5321.0,8533.0 5312.0,8510.0 5285.0,8510.0 C 5265.0,8510.0 5260.0,8504.0 5255.0,8465.0 C 5250.0,8435.0 5253.0,8406.0 5264.0,8374.0 C 5285.0,8312.0 5284.0,8256.0 5263.0,8222.0 C 5253.0,8208.0 5244.0,8178.0 5242.0,8155.0 C 5241.0,8133.0 5237.0,8077.0 5234.0,8031.0 L 5228.0,7947.0 L 5252.0,7953.0 C 5280.0,7960.0 5303.0,7929.0 5314.0,7867.0 C 5319.0,7843.0 5331.0,7823.0 5350.0,7809.0 L 5379.0,7787.0 L 5359.0,7738.0 C 5335.0,7676.0 5335.0,7670.0 5364.0,7670.0 C 5398.0,7670.0 5420.0,7660.0 5420.0,7645.0 C 5420.0,7637.0 5434.0,7630.0 5453.0,7628.0 C 5481.0,7625.0 5485.0,7621.0 5488.0,7593.0 C 5492.0,7552.0 5522.0,7530.0 5564.0,7537.0 C 5617.0,7545.0 5632.0,7524.0 5634.0,7441.0 C 5636.0,7385.0 5633.0,7367.0 5621.0,7360.0 C 5607.0,7351.0 5607.0,7349.0 5620.0,7340.0 C 5634.0,7330.0 5651.0,7331.0 5765.0,7346.0 C 5804.0,7351.0 5817.0,7348.0 5860.0,7320.0 C 5916.0,7284.0 5917.0,7277.0 5878.0,7187.0 L 5857.0,7140.0 L 5880.0,7115.0 L 5903.0,7090.0 L 5935.0,7110.0 C 5977.0,7136.0 6040.0,7136.0 6087.0,7110.0 C 6108.0,7099.0 6140.0,7087.0 6158.0,7084.0 C 6181.0,7079.0 6198.0,7067.0 6213.0,7044.0 C 6225.0,7025.0 6243.0,7010.0 6252.0,7010.0 C 6261.0,7010.0 6283.0,7002.0 6302.0,6993.0 C 6320.0,6983.0 6336.0,6974.0 6338.0,6973.0 C 6340.0,6972.0 6334.0,6960.0 6324.0,6945.0 C 6308.0,6921.0 6308.0,6918.0 6323.0,6902.0 C 6338.0,6887.0 6341.0,6888.0 6364.0,6909.0 C 6391.0,6934.0 6440.0,6939.0 6516.0,6925.0 C 6548.0,6919.0 6565.0,6922.0 6586.0,6935.0 C 6615.0,6952.0 6680.0,7051.0 6680.0,7076.0 C 6680.0,7084.0 6686.0,7090.0 6693.0,7090.0 C 6699.0,7090.0 6721.0,7117.0 6742.0,7149.0 C 6770.0,7196.0 6784.0,7209.0 6807.0,7212.0 C 6829.0,7214.0 6840.0,7225.0 6858.0,7260.0 C 6871.0,7285.0 6887.0,7312.0 6895.0,7320.0 C 6929.0,7360.0 6935.0,7388.0 6940.0,7531.0 C 6945.0,7670.0 6946.0,7679.0 6972.0,7716.0 C 6987.0,7738.0 7004.0,7778.0 7009.0,7804.0 C 7014.0,7831.0 7032.0,7872.0 7049.0,7897.0 C 7066.0,7921.0 7080.0,7948.0 7080.0,7958.0 C 7080.0,7967.0 7089.0,7990.0 7100.0,8008.0 C 7111.0,8026.0 7120.0,8053.0 7120.0,8068.0 C 7120.0,8083.0 7133.0,8138.0 7149.0,8191.0 C 7171.0,8269.0 7186.0,8299.0 7223.0,8345.0 C 7249.0,8376.0 7275.0,8418.0 7281.0,8439.0 C 7291.0,8473.0 7289.0,8482.0 7261.0,8538.0 C 7227.0,8605.0 7223.0,8639.0 7244.0,8673.0 C 7271.0,8716.0 7283.0,9257.0 7258.0,9319.0 C 7252.0,9333.0 7245.0,9399.0 7242.0,9465.0 C 7237.0,9580.0 7236.0,9586.0 7209.0,9613.0 C 7191.0,9630.0 7180.0,9652.0 7180.0,9668.0 C 7180.0,9683.0 7169.0,9712.0 7155.0,9732.0 C 7141.0,9752.0 7130.0,9775.0 7130.0,9783.0 C 7130.0,9791.0 7119.0,9817.0 7106.0,9841.0 C 7087.0,9874.0 7084.0,9888.0 7091.0,9903.0 C 7097.0,9913.0 7100.0,9923.0 7098.0,9924.0 C 7096.0,9925.0 7083.0,9934.0 7068.0,9943.0 C 7035.0,9963.0 7031.0,9990.0 7060.0,9990.0 C 7076.0,9990.0 7080.0,9997.0 7080.0,10023.0 C 7080.0,10070.0 7052.0,10093.0 7008.0,10085.0 C 6982.0,10080.0 6970.0,10083.0 6956.0,10099.0 C 6938.0,10119.0 6938.0,10120.0 6964.0,10131.0 C 6996.0,10146.0 6993.0,10159.0 6952.0,10183.0 C 6921.0,10201.0 6920.0,10201.0 6888.0,10176.0 C 6852.0,10150.0 6832.0,10153.0 6800.0,10192.0 C 6784.0,10211.0 6720.0,10228.0 6630.0,10236.0 C 6589.0,10240.0 6570.0,10238.0 6555.0,10226.0" fill="pink"/>
	<path d="M 6149.0,5940.0 C 6140.0,5935.0 6129.0,5919.0 6126.0,5904.0 C 6122.0,5890.0 6108.0,5860.0 6094.0,5838.0 C 6072.0,5804.0 6065.0,5799.0 6044.0,5804.0 C 6027.0,5809.0 6009.0,5804.0 5988.0,5788.0 C 5970.0,5775.0 5933.0,5752.0 5904.0,5735.0 C 5809.0,5680.0 5761.0,5645.0 5749.0,5623.0 C 5740.0,5606.0 5728.0,5600.0 5700.0,5600.0 C 5667.0,5600.0 5662.0,5596.0 5643.0,5556.0 L 5621.0,5512.0 L 5644.0,5491.0 C 5661.0,5475.0 5679.0,5470.0 5718.0,5470.0 C 5769.0,5470.0 5770.0,5469.0 5770.0,5441.0 C 5770.0,5401.0 5679.0,5300.0 5643.0,5300.0 C 5630.0,5300.0 5609.0,5295.0 5597.0,5288.0 C 5584.0,5281.0 5520.0,5275.0 5435.0,5273.0 C 5314.0,5270.0 5291.0,5267.0 5268.0,5250.0 C 5253.0,5239.0 5234.0,5230.0 5225.0,5230.0 C 5210.0,5230.0 5150.0,5203.0 5150.0,5196.0 C 5150.0,5194.0 5228.0,5193.0 5324.0,5193.0 C 5494.0,5193.0 5500.0,5192.0 5545.0,5166.0 C 5614.0,5128.0 5710.0,5133.0 5710.0,5176.0 C 5710.0,5194.0 5750.0,5210.0 5796.0,5210.0 C 5823.0,5210.0 5830.0,5206.0 5830.0,5190.0 C 5830.0,5179.0 5834.0,5170.0 5839.0,5170.0 C 5851.0,5170.0 5890.0,5219.0 5890.0,5234.0 C 5890.0,5241.0 5915.0,5270.0 5945.0,5300.0 C 5980.0,5334.0 6000.0,5363.0 6000.0,5377.0 C 6000.0,5390.0 6006.0,5400.0 6014.0,5400.0 C 6041.0,5400.0 6054.0,5428.0 6043.0,5464.0 C 6036.0,5486.0 6036.0,5503.0 6043.0,5515.0 C 6055.0,5537.0 6037.0,5550.0 5994.0,5550.0 C 5966.0,5550.0 5963.0,5553.0 5967.0,5574.0 C 5970.0,5590.0 5981.0,5601.0 5999.0,5605.0 C 6013.0,5608.0 6034.0,5620.0 6045.0,5630.0 C 6100.0,5682.0 6112.0,5690.0 6131.0,5690.0 C 6181.0,5690.0 6202.0,5721.0 6178.0,5760.0 C 6168.0,5775.0 6169.0,5786.0 6183.0,5815.0 C 6203.0,5856.0 6205.0,5921.0 6188.0,5938.0 C 6174.0,5952.0 6170.0,5952.0 6149.0,5940.0" fill="pink"/>
	<path d="M 5667.0,5024.0 C 5652.0,5016.0 5640.0,5001.0 5640.0,4992.0 C 5640.0,4982.0 5635.0,4969.0 5628.0,4962.0 C 5612.0,4946.0 5641.0,4936.0 5685.0,4944.0 C 5734.0,4954.0 5749.0,4984.0 5718.0,5015.0 C 5696.0,5036.0 5693.0,5037.0 5667.0,5024.0" fill="pink"/>
	<path d="M 5568.0,4838.0 C 5541.0,4810.0 5520.0,4783.0 5520.0,4779.0 C 5520.0,4774.0 5507.0,4770.0 5492.0,4770.0 C 5461.0,4770.0 5400.0,4716.0 5400.0,4688.0 C 5400.0,4665.0 5434.0,4657.0 5475.0,4670.0 C 5500.0,4678.0 5514.0,4678.0 5530.0,4670.0 C 5542.0,4664.0 5564.0,4662.0 5580.0,4665.0 C 5606.0,4671.0 5610.0,4677.0 5616.0,4718.0 C 5620.0,4744.0 5631.0,4782.0 5642.0,4802.0 C 5663.0,4845.0 5658.0,4890.0 5631.0,4889.0 C 5622.0,4889.0 5594.0,4866.0 5568.0,4838.0" fill="pink"/>
	<path d="M 7080.0,4865.0 C 7080.0,4851.0 7077.0,4840.0 7073.0,4840.0 C 7068.0,4840.0 7059.0,4836.0 7052.0,4831.0 C 7041.0,4825.0 7042.0,4816.0 7056.0,4787.0 C 7070.0,4759.0 7076.0,4753.0 7087.0,4761.0 C 7094.0,4767.0 7107.0,4770.0 7115.0,4766.0 C 7125.0,4763.0 7133.0,4767.0 7137.0,4778.0 C 7140.0,4787.0 7151.0,4804.0 7162.0,4816.0 C 7181.0,4837.0 7180.0,4837.0 7155.0,4854.0 C 7141.0,4863.0 7119.0,4875.0 7105.0,4880.0 C 7083.0,4889.0 7080.0,4887.0 7080.0,4865.0" fill="pink"/>
	<path d="M 6886.0,4768.0 C 6877.0,4756.0 6870.0,4729.0 6870.0,4708.0 C 6870.0,4676.0 6874.0,4669.0 6896.0,4664.0 C 6918.0,4658.0 6921.0,4653.0 6917.0,4631.0 C 6904.0,4568.0 6904.0,4565.0 6925.0,4567.0 C 6952.0,4569.0 7020.0,4587.0 7027.0,4593.0 C 7034.0,4601.0 7010.0,4642.0 6983.0,4667.0 C 6965.0,4684.0 6961.0,4696.0 6966.0,4716.0 C 6971.0,4737.0 6967.0,4747.0 6944.0,4766.0 C 6908.0,4795.0 6905.0,4795.0 6886.0,4768.0" fill="pink"/>
	<path d="M 6546.0,3963.0 C 6498.0,3929.0 6474.0,3925.0 6429.0,3944.0 C 6416.0,3949.0 6409.0,3941.0 6396.0,3911.0 C 6387.0,3888.0 6375.0,3870.0 6369.0,3870.0 C 6362.0,3870.0 6360.0,3861.0 6365.0,3843.0 C 6377.0,3798.0 6371.0,3760.0 6343.0,3713.0 C 6320.0,3673.0 6318.0,3664.0 6328.0,3636.0 C 6335.0,3618.0 6340.0,3596.0 6340.0,3587.0 C 6340.0,3578.0 6354.0,3563.0 6370.0,3555.0 C 6387.0,3546.0 6409.0,3525.0 6420.0,3508.0 L 6439.0,3477.0 L 6446.0,3506.0 C 6450.0,3522.0 6459.0,3543.0 6467.0,3552.0 C 6475.0,3561.0 6484.0,3588.0 6487.0,3612.0 C 6490.0,3636.0 6506.0,3696.0 6522.0,3747.0 C 6551.0,3835.0 6553.0,3839.0 6584.0,3842.0 C 6607.0,3844.0 6616.0,3850.0 6618.0,3868.0 C 6620.0,3880.0 6616.0,3890.0 6609.0,3890.0 C 6600.0,3890.0 6600.0,3893.0 6610.0,3905.0 C 6622.0,3920.0 6615.0,4001.0 6602.0,3999.0 C 6598.0,3999.0 6573.0,3983.0 6546.0,3963.0" fill="pink"/>
	<path d="M 6275.0,3280.0 C 6251.0,3254.0 6262.0,3233.0 6303.0,3228.0 C 6328.0,3225.0 6340.0,3229.0 6353.0,3246.0 C 6368.0,3266.0 6367.0,3268.0 6334.0,3283.0 C 6292.0,3304.0 6297.0,3304.0 6275.0,3280.0" fill="pink"/>
	<path d="M 6106.0,2848.0 C 6114.0,2819.0 6116.0,2817.0 6129.0,2825.0 C 6149.0,2837.0 6142.0,2870.0 6119.0,2870.0 C 6103.0,2870.0 6100.0,2866.0 6106.0,2848.0" fill="pink"/>
	<path d="M 4560.0,1930.0 C 4554.0,1919.0 4546.0,1887.0 4543.0,1861.0 C 4538.0,1814.0 4539.0,1811.0 4569.0,1796.0 C 4599.0,1780.0 4602.0,1773.0 4615.0,1695.0 C 4619.0,1673.0 4624.0,1643.0 4627.0,1628.0 C 4642.0,1547.0 4599.0,1495.0 4528.0,1506.0 C 4498.0,1511.0 4492.0,1509.0 4487.0,1491.0 C 4479.0,1459.0 4424.0,1463.0 4374.0,1499.0 C 4352.0,1515.0 4321.0,1530.0 4305.0,1532.0 C 4280.0,1534.0 4274.0,1531.0 4272.0,1513.0 C 4269.0,1494.0 4273.0,1490.0 4295.0,1490.0 C 4323.0,1490.0 4380.0,1464.0 4393.0,1446.0 C 4397.0,1440.0 4405.0,1418.0 4411.0,1396.0 L 4421.0,1357.0 L 4459.0,1394.0 C 4500.0,1434.0 4547.0,1442.0 4571.0,1414.0 C 4578.0,1405.0 4593.0,1394.0 4605.0,1390.0 C 4622.0,1384.0 4628.0,1390.0 4649.0,1439.0 C 4680.0,1515.0 4692.0,1566.0 4691.0,1621.0 C 4690.0,1662.0 4692.0,1668.0 4712.0,1673.0 C 4725.0,1676.0 4763.0,1688.0 4798.0,1701.0 C 4866.0,1725.0 4870.0,1733.0 4846.0,1791.0 C 4837.0,1813.0 4834.0,1843.0 4837.0,1876.0 C 4842.0,1922.0 4840.0,1929.0 4821.0,1940.0 C 4803.0,1949.0 4795.0,1947.0 4769.0,1926.0 C 4740.0,1901.0 4676.0,1890.0 4668.0,1908.0 C 4665.0,1916.0 4594.0,1950.0 4580.0,1950.0 C 4575.0,1950.0 4566.0,1941.0 4560.0,1930.0" fill="pink"/>
	<path d="M 3820.0,793.0 C 3820.0,768.0 3819.0,768.0 3802.0,783.0 C 3781.0,802.0 3770.0,796.0 3770.0,768.0 C 3770.0,758.0 3758.0,732.0 3744.0,710.0 C 3722.0,677.0 3720.0,668.0 3730.0,655.0 C 3740.0,643.0 3740.0,634.0 3731.0,614.0 C 3715.0,579.0 3726.0,550.0 3754.0,550.0 C 3782.0,550.0 3793.0,563.0 3809.0,611.0 C 3819.0,643.0 3828.0,650.0 3880.0,669.0 C 3915.0,682.0 3940.0,697.0 3940.0,705.0 C 3940.0,713.0 3922.0,731.0 3900.0,745.0 C 3877.0,760.0 3860.0,778.0 3860.0,789.0 C 3860.0,799.0 3851.0,810.0 3840.0,813.0 C 3824.0,817.0 3820.0,813.0 3820.0,793.0" fill="pink"/>
	<path d="M 3163.0,359.0 C 3158.0,343.0 3151.0,339.0 3131.0,343.0 C 3101.0,349.0 3040.0,326.0 3040.0,310.0 C 3040.0,303.0 3054.0,285.0 3070.0,270.0 C 3087.0,255.0 3100.0,233.0 3100.0,221.0 C 3100.0,192.0 3046.0,147.0 2997.0,135.0 C 2956.0,124.0 2955.0,123.0 2952.0,78.0 C 2949.0,26.0 2941.0,30.0 3055.0,16.0 C 3077.0,13.0 3105.0,8.0 3117.0,4.0 C 3135.0,-1.0 3142.0,3.0 3150.0,24.0 C 3157.0,43.0 3167.0,50.0 3188.0,50.0 C 3208.0,50.0 3220.0,58.0 3233.0,80.0 C 3255.0,116.0 3261.0,117.0 3296.0,85.0 C 3325.0,58.0 3336.0,55.0 3345.0,70.0 C 3348.0,75.0 3372.0,80.0 3398.0,80.0 C 3454.0,80.0 3465.0,86.0 3479.0,124.0 C 3486.0,140.0 3502.0,156.0 3520.0,163.0 C 3543.0,172.0 3550.0,181.0 3550.0,201.0 C 3550.0,224.0 3544.0,230.0 3518.0,236.0 C 3500.0,240.0 3473.0,242.0 3458.0,241.0 C 3438.0,239.0 3430.0,243.0 3430.0,254.0 C 3430.0,272.0 3405.0,276.0 3395.0,260.0 C 3392.0,255.0 3368.0,250.0 3342.0,250.0 C 3280.0,251.0 3240.0,284.0 3233.0,340.0 C 3228.0,376.0 3225.0,380.0 3198.0,380.0 C 3176.0,380.0 3167.0,374.0 3163.0,359.0" fill="pink"/>
</svg>

<?xml version="1.0" standalone="no"?>
<!DOCTYPE svg PUBLIC "-//W3C//DTD SVG 20010904//EN"
 "http://www.w3.org/TR/2001/REC-SVG-20010904/DTD/svg10.dtd">
<svg version="1.0" xmlns="http://www.w3.org/2000/svg"
 width="1024.000000pt" height="1024.000000pt" viewBox="0 0 1024.000000 1024.000000"
 preserveAspectRatio="xMidYMid meet">
<metadata>
Created by potrace 1.10, written by Peter Selinger 2001-2011
</metadata>
<g transform="translate(0.000000,1024.000000) scale(0.100000,-0.100000)"
fill="#000000" stroke="none">
<path d="M6555 10226 c-11 -8 -36 -16 -56 -16 -19 0 -58 -7 -86 -15 -40 -12
-54 -22 -69 -50 -18 -34 -21 -35 -76 -35 -40 0 -58 -4 -58 -12 0 -7 -16 -24
-35 -37 -19 -13 -35 -30 -35 -38 0 -36 -63 -200 -87 -225 -17 -17 -23 -32 -19
-46 5 -14 -5 -30 -39 -60 -54 -50 -73 -86 -82 -149 -9 -73 -46 -137 -99 -173
l-45 -32 6 -111 6 -112 -39 -27 c-35 -24 -41 -26 -58 -13 -28 21 -61 19 -67
-5 -3 -11 -16 -24 -30 -29 -14 -5 -28 -15 -32 -21 -4 -6 -16 -8 -27 -5 -10 4
-30 4 -43 1 -30 -8 -51 -65 -36 -94 8 -16 5 -30 -14 -66 -33 -62 -33 -86 0
-86 35 0 31 -21 -10 -49 -20 -13 -43 -37 -52 -53 -11 -17 -26 -28 -40 -28 -27
0 -39 -33 -25 -70 13 -37 4 -60 -23 -60 -20 0 -25 -6 -30 -45 -5 -30 -2 -59 9
-91 21 -62 20 -118 -1 -152 -10 -14 -19 -44 -21 -67 -1 -22 -5 -78 -8 -124
l-6 -84 24 6 c28 7 51 -24 62 -86 5 -24 17 -44 36 -58 l29 -22 -20 -49 c-24
-62 -24 -68 5 -68 34 0 56 -10 56 -25 0 -8 14 -15 33 -17 28 -3 32 -7 35 -35
4 -41 34 -63 76 -56 53 8 68 -13 70 -96 2 -56 -1 -74 -13 -81 -14 -9 -14 -11
-1 -20 14 -10 31 -9 145 6 39 5 52 2 95 -26 56 -36 57 -43 18 -133 l-21 -47
23 -25 23 -25 32 20 c42 26 105 26 152 0 21 -11 53 -23 71 -26 23 -5 40 -17
55 -40 12 -19 30 -34 39 -34 9 0 31 -8 50 -17 18 -10 34 -19 36 -20 2 -1 -4
-13 -14 -28 -16 -24 -16 -27 -1 -43 15 -15 18 -14 41 7 27 25 76 30 152 16 32
-6 49 -3 70 10 29 17 94 116 94 141 0 8 6 14 13 14 6 0 28 27 49 59 28 47 42
60 65 63 22 2 33 13 51 48 13 25 29 52 37 60 34 40 40 68 45 211 5 139 6 148
32 185 15 22 32 62 37 88 5 27 23 68 40 93 17 24 31 51 31 61 0 9 9 32 20 50
11 18 20 45 20 60 0 15 13 70 29 123 22 78 37 108 74 154 26 31 52 73 58 94
10 34 8 43 -20 99 -34 67 -38 101 -17 135 27 43 39 584 14 646 -6 14 -13 80
-16 146 -5 115 -6 121 -33 148 -18 17 -29 39 -29 55 0 15 -11 44 -25 64 -14
20 -25 43 -25 51 0 8 -11 34 -24 58 -19 33 -22 47 -15 62 6 10 9 20 7 21 -2 1
-15 10 -30 19 -33 20 -37 47 -8 47 16 0 20 7 20 33 0 47 -28 70 -72 62 -26 -5
-38 -2 -52 14 -18 20 -18 21 8 32 32 15 29 28 -12 52 -31 18 -32 18 -64 -7
-36 -26 -56 -23 -88 16 -16 19 -80 36 -170 44 -41 4 -60 2 -75 -10z"/>
<path d="M6149 5940 c-9 -5 -20 -21 -23 -36 -4 -14 -18 -44 -32 -66 -22 -34
-29 -39 -50 -34 -17 5 -35 0 -56 -16 -18 -13 -55 -36 -84 -53 -95 -55 -143
-90 -155 -112 -9 -17 -21 -23 -49 -23 -33 0 -38 -4 -57 -44 l-22 -44 23 -21
c17 -16 35 -21 74 -21 51 0 52 -1 52 -29 0 -40 -91 -141 -127 -141 -13 0 -34
-5 -46 -12 -13 -7 -77 -13 -162 -15 -121 -3 -144 -6 -167 -23 -15 -11 -34 -20
-43 -20 -15 0 -75 -27 -75 -34 0 -2 78 -3 174 -3 170 0 176 -1 221 -27 69 -38
165 -33 165 10 0 18 40 34 86 34 27 0 34 -4 34 -20 0 -11 4 -20 9 -20 12 0 51
49 51 64 0 7 25 36 55 66 35 34 55 63 55 77 0 13 6 23 14 23 27 0 40 28 29 64
-7 22 -7 39 0 51 12 22 -6 35 -49 35 -28 0 -31 3 -27 24 3 16 14 27 32 31 14
3 35 15 46 25 55 52 67 60 86 60 50 0 71 31 47 70 -10 15 -9 26 5 55 20 41 22
106 5 123 -14 14 -18 14 -39 2z"/>
<path d="M5667 5024 c-15 -8 -27 -23 -27 -32 0 -10 -5 -23 -12 -30 -16 -16 13
-26 57 -18 49 10 64 40 33 71 -22 21 -25 22 -51 9z"/>
<path d="M5568 4838 c-27 -28 -48 -55 -48 -59 0 -5 -13 -9 -28 -9 -31 0 -92
-54 -92 -82 0 -23 34 -31 75 -18 25 8 39 8 55 0 12 -6 34 -8 50 -5 26 6 30 12
36 53 4 26 15 64 26 84 21 43 16 88 -11 87 -9 0 -37 -23 -63 -51z"/>
<path d="M7080 4865 c0 -14 -3 -25 -7 -25 -5 0 -14 -4 -21 -9 -11 -6 -10 -15
4 -44 14 -28 20 -34 31 -26 7 6 20 9 28 5 10 -3 18 1 22 12 3 9 14 26 25 38
19 21 18 21 -7 38 -14 9 -36 21 -50 26 -22 9 -25 7 -25 -15z"/>
<path d="M6886 4768 c-9 -12 -16 -39 -16 -60 0 -32 4 -39 26 -44 22 -6 25 -11
21 -33 -13 -63 -13 -66 8 -64 27 2 95 20 102 26 7 8 -17 49 -44 74 -18 17 -22
29 -17 49 5 21 1 31 -22 50 -36 29 -39 29 -58 2z"/>
<path d="M6546 3963 c-48 -34 -72 -38 -117 -19 -13 5 -20 -3 -33 -33 -9 -23
-21 -41 -27 -41 -7 0 -9 -9 -4 -27 12 -45 6 -83 -22 -130 -23 -40 -25 -49 -15
-77 7 -18 12 -40 12 -49 0 -9 14 -24 30 -32 17 -9 39 -30 50 -47 l19 -31 7 29
c4 16 13 37 21 46 8 9 17 36 20 60 3 24 19 84 35 135 29 88 31 92 62 95 23 2
32 8 34 26 2 12 -2 22 -9 22 -9 0 -9 3 1 15 12 15 5 96 -8 94 -4 0 -29 -16
-56 -36z"/>
<path d="M6275 3280 c-24 -26 -13 -47 28 -52 25 -3 37 1 50 18 15 20 14 22
-19 37 -42 21 -37 21 -59 -3z"/>
<path d="M6106 2848 c8 -29 10 -31 23 -23 20 12 13 45 -10 45 -16 0 -19 -4
-13 -22z"/>
<path d="M4560 1930 c-6 -11 -14 -43 -17 -69 -5 -47 -4 -50 26 -65 30 -16 33
-23 46 -101 4 -22 9 -52 12 -67 15 -81 -28 -133 -99 -122 -30 5 -36 3 -41 -15
-8 -32 -63 -28 -113 8 -22 16 -53 31 -69 33 -25 2 -31 -1 -33 -19 -3 -19 1
-23 23 -23 28 0 85 -26 98 -44 4 -6 12 -28 18 -50 l10 -39 38 37 c41 40 88 48
112 20 7 -9 22 -20 34 -24 17 -6 23 0 44 49 31 76 43 127 42 182 -1 41 1 47
21 52 13 3 51 15 86 28 68 24 72 32 48 90 -9 22 -12 52 -9 85 5 46 3 53 -16
64 -18 9 -26 7 -52 -14 -29 -25 -93 -36 -101 -18 -3 8 -74 42 -88 42 -5 0 -14
-9 -20 -20z"/>
<path d="M3820 793 c0 -25 -1 -25 -18 -10 -21 19 -32 13 -32 -15 0 -10 -12
-36 -26 -58 -22 -33 -24 -42 -14 -55 10 -12 10 -21 1 -41 -16 -35 -5 -64 23
-64 28 0 39 13 55 61 10 32 19 39 71 58 35 13 60 28 60 36 0 8 -18 26 -40 40
-23 15 -40 33 -40 44 0 10 -9 21 -20 24 -16 4 -20 0 -20 -20z"/>
<path d="M3163 359 c-5 -16 -12 -20 -32 -16 -30 6 -91 -17 -91 -33 0 -7 14
-25 30 -40 17 -15 30 -37 30 -49 0 -29 -54 -74 -103 -86 -41 -11 -42 -12 -45
-57 -3 -52 -11 -48 103 -62 22 -3 50 -8 62 -12 18 -5 25 -1 33 20 7 19 17 26
38 26 20 0 32 8 45 30 22 36 28 37 63 5 29 -27 40 -30 49 -15 3 5 27 10 53 10
56 0 67 6 81 44 7 16 23 32 41 39 23 9 30 18 30 38 0 23 -6 29 -32 35 -18 4
-45 6 -60 5 -20 -2 -28 2 -28 13 0 18 -25 22 -35 6 -3 -5 -27 -10 -53 -10 -62
1 -102 34 -109 90 -5 36 -8 40 -35 40 -22 0 -31 -6 -35 -21z"/>
</g>
</svg>
